X:807
T:Clan MacColl, The 
C:Joe Buchanan's Scottish Tome - Page 060.0
I:060 0
R:Strathspey
Z:Carl Allison
L:1/8
M:4/4
K:Amix
e>d|c2d>B A<Ac<e|a2c>d e2d>c|d2G2 G>AB<e|d>cB>c d2e>d|
c2d>B A<Ac<e|a2c>d e2d>c|B<GB<d c<ef>e|{d}c2A2 A2:|
|:c>d|e2f>g a2g<e|g2a>f e2d>c|d2G2 G>AB<e|d>cB>c d2c>d|
e2c<A a2g<e|g2a>f e2d>c|B<GB<d c<ef>e|{d}c2A2 A2:|
|:e>c|A>AA>c A<eA>c|c<ac>d e2d>c|B<dc<e B<dG>B|B<gB>c d2e>c|
A>AA>c A<eA>c|c<ac>d e2d>c|B<GB<d c<ef>e|{d}c2A2 A2:|
c>d|e<ca>f e>Ac<e|e<ac>d e2d>c|B>dc<e d>GB<d|d<gB>c d2c>d|
e<ca>f e>Ac<e|g2a>f e2d>c|B<GB<d c<ef>e|{d}c2A2 A2c>d|
e<ca>f e>Ac<e|e<ac>d e2d>c|B>dc<e d>GB<d|d<gB>c d2c>d|
e>cd>B c<Ac<e|g2a>f e2d>c|B<GB<d c<ef>e|{d}c2A2 A2|]

